X:42
T:Money in Both Pockets
N:page 24 on manuscript
M:6/8
L:1/8
K:C
G | c2 E EFE | GAG GFE | c2 E EFE | GAG fed | c2 E EFE | GAG GFE | DED DEG | BAB A2 :|
|:G | ceg gec | Bdg dBG | ceg gec | (f3 e2) g | gfe agf | gfe dcd | ecA GEG | ABA A2 :||

